X:1
T:Engelska efter Fritz Oskar Brogren
R:Engelska
O:Släp, Halland
N:Jämför med Åttamannadans från Ödsmål
M:2/4
L:1/16
K:G
Z:Jesper B
|: G,2, B,D G2G2 | FGAB G2G2 | FGAB cBcA |AGBG D2D2|
G,2, B,D G2G2 | FGAB G2G2 | FGAB c2AF| A2G2 G2 z2 :|
|: d2Bd g2g2 |agfg A2>B2| c2e2 edcA |G2Bc d2z2|
d2Bd g2g2 |agfg A2>B2| c2e2 edcA |G2G2 G2 z2 :|

